X:51b
T:La belle qui fait la morte [autre thème]
R:Chanson
O:France
N:cette version me convient bien mieux que celle de Davenson
B:Anthologie de la chanson française 3 - Jean-François Dutertre
Z: (transcription d'oreille) anamnese@caramail.com
M:4/4
L:1/8
Q:1/4=100
K:Eb
A | F G A B c3 c | _d c B B A2 G A | F G A B c3 c |\
M:5/4
 _d c B B A2 G3 z |
M:4/4
c2 G B B A G F |\
M:5/4
 B2 c _d c B G3 A |
M:4/4
 F G A B c A c2 B B A G F2 ||
W: [mêmes paroles que la précédente...]

